X:1
T:Balaclava
M:4/4
L:1/4
K:D
 A| A A G F| E D2 A| d A c B| A3| A| B G d c| B A2 A| A A ^G A| E3|\
 A| A A G F| E D2 A| d A c B| A3|| B/2c/2| d F G F| E c2 B/2B/2| AE/2-F/2 G F|\
 D3||
